img/meet/google.svg

<svg width="65" height="65" viewBox="0 0 65 65" fill="none" xmlns="http://www.w3.org/2000/svg">
<g id="Group 48095398">
<g id="Group 48095398_2">
<rect id="Rectangle 39360" x="1.36206" y="1" width="63" height="63" rx="31.5" fill="black" stroke="#A6A6A6" stroke-width="1.21154"/>
<g id="Group 48095399">
<g id="g48">
<path id="path64" d="M20.5489 15.4565C20.1374 15.877 19.8993 16.5318 19.8993 17.3797V47.6251C19.8993 48.473 20.1374 49.1278 20.5489 49.5483L20.6505 49.6406L38.0096 32.699V32.299L20.6505 15.3573L20.5489 15.4565Z" fill="url(#paint0_linear_502_6441)"/>
</g>
<g id="g66">
<path id="path78" d="M43.79 38.3496L38.01 32.6996V32.2995L43.797 26.6495L43.9265 26.723L50.7799 30.5301C52.7357 31.6106 52.7357 33.3885 50.7799 34.4758L43.9265 38.2761L43.79 38.3496Z" fill="url(#paint1_linear_502_6441)"/>
</g>
<g id="g80">
<path id="path88" d="M43.9266 38.2751L38.0101 32.4985L20.5494 49.5478C21.199 50.2145 22.2584 50.2949 23.463 49.6282L43.9266 38.2751Z" fill="url(#paint2_linear_502_6441)"/>
</g>
<g id="g90">
<path id="path104" d="M43.9264 26.7234L23.4628 15.3703C22.2581 14.7104 21.1988 14.7908 20.5492 15.4575L38.0099 32.5L43.9264 26.7234Z" fill="url(#paint3_linear_502_6441)"/>
</g>
</g>
</g>
</g>
<defs>
<linearGradient id="paint0_linear_502_6441" x1="36.4683" y1="47.94" x2="13.5226" y2="24.4384" gradientUnits="userSpaceOnUse">
<stop stop-color="#00A0FF"/>
<stop offset="0.0066" stop-color="#00A1FF"/>
<stop offset="0.2601" stop-color="#00BEFF"/>
<stop offset="0.5122" stop-color="#00D2FF"/>
<stop offset="0.7604" stop-color="#00DFFF"/>
<stop offset="1" stop-color="#00E3FF"/>
</linearGradient>
<linearGradient id="paint1_linear_502_6441" x1="53.3267" y1="32.4976" x2="19.4322" y2="32.4976" gradientUnits="userSpaceOnUse">
<stop stop-color="#FFE000"/>
<stop offset="0.4087" stop-color="#FFBD00"/>
<stop offset="0.7754" stop-color="#FFA500"/>
<stop offset="1" stop-color="#FF9C00"/>
</linearGradient>
<linearGradient id="paint2_linear_502_6441" x1="40.7094" y1="29.3583" x2="9.59319" y2="-2.51193" gradientUnits="userSpaceOnUse">
<stop stop-color="#FF3A44"/>
<stop offset="1" stop-color="#C31162"/>
</linearGradient>
<linearGradient id="paint3_linear_502_6441" x1="16.1539" y1="59.6118" x2="30.0487" y2="45.3805" gradientUnits="userSpaceOnUse">
<stop stop-color="#32A071"/>
<stop offset="0.0685" stop-color="#2DA771"/>
<stop offset="0.4762" stop-color="#15CF74"/>
<stop offset="0.8009" stop-color="#06E775"/>
<stop offset="1" stop-color="#00F076"/>
</linearGradient>
</defs>
</svg>

<svg xmlns="http://www.w3.org/2000/svg" width="65" height="65" fill="none"><rect width="63" height="63" x="1.362" y="1" fill="#000" stroke="#A6A6A6" stroke-width="1.212" rx="31.5"/><path fill="url(#a)" d="M20.549 15.457c-.412.42-.65 1.075-.65 1.923v30.245c0 .848.238 1.503.65 1.923l.102.093L38.01 32.699v-.4L20.65 15.357l-.101.1Z"/><path fill="url(#b)" d="m43.79 38.35-5.78-5.65v-.4l5.787-5.65.13.073 6.853 3.807c1.956 1.08 1.956 2.858 0 3.946l-6.854 3.8-.136.074Z"/><path fill="url(#c)" d="M43.927 38.275 38.01 32.5 20.55 49.547c.649.666 1.708.747 2.913.08l20.464-11.353Z"/><path fill="url(#d)" d="M43.926 26.723 23.463 15.37c-1.205-.66-2.264-.58-2.914.088L38.01 32.5l5.917-5.777Z"/><defs><linearGradient id="a" x1="36.468" x2="13.523" y1="47.94" y2="24.438" gradientUnits="userSpaceOnUse"><stop stop-color="#00A0FF"/><stop offset=".007" stop-color="#00A1FF"/><stop offset=".26" stop-color="#00BEFF"/><stop offset=".512" stop-color="#00D2FF"/><stop offset=".76" stop-color="#00DFFF"/><stop offset="1" stop-color="#00E3FF"/></linearGradient><linearGradient id="b" x1="53.327" x2="19.432" y1="32.498" y2="32.498" gradientUnits="userSpaceOnUse"><stop stop-color="#FFE000"/><stop offset=".409" stop-color="#FFBD00"/><stop offset=".775" stop-color="orange"/><stop offset="1" stop-color="#FF9C00"/></linearGradient><linearGradient id="c" x1="40.709" x2="9.593" y1="29.358" y2="-2.512" gradientUnits="userSpaceOnUse"><stop stop-color="#FF3A44"/><stop offset="1" stop-color="#C31162"/></linearGradient><linearGradient id="d" x1="16.154" x2="30.049" y1="59.612" y2="45.38" gradientUnits="userSpaceOnUse"><stop stop-color="#32A071"/><stop offset=".069" stop-color="#2DA771"/><stop offset=".476" stop-color="#15CF74"/><stop offset=".801" stop-color="#06E775"/><stop offset="1" stop-color="#00F076"/></linearGradient></defs></svg>
